icons/stretch-24.svg

<svg xmlns="http://www.w3.org/2000/svg" viewBox="0 0 24 24"><path d="M16 21h2v1h-2zm-4 1h2v-1h-2zm9-14h1V6h-1zm0 5h1v-2h-1zm0 5h1v-2h-1zm0 3h-1v1h2v-2h-1zM13 2h-2v1h2zm5 0h-2v1h2zM8 2H6v1h2zM3 6H2v2h1zm0 4H2v2h1zm0-7h1V2H2v2h1zm17-1v1h1v1h1V2zm-4 4h1.3L12 11.299V10h-1v3h3v-1h-1.287L18 6.713V8h1V5h-3zM2 14h8v8H2zm1 7h6v-6H3z"/><path fill="none" d="M0 0h24v24H0z"/></svg>

<svg id="icons" xmlns="http://www.w3.org/2000/svg" viewBox="0 0 24 24"><defs><style>.cls-1{fill:none;}</style></defs><path d="M16,20.99982h2v1H16ZM12,22h2V21H12ZM21,7.99982h1v-2H21Zm0,5h1v-2H21Zm0,5h1v-2H21ZM21,21H20v1h2V20H21ZM13,2.00018H11v1h2Zm5,0H16v1h2Zm-10,0H6v1H8Zm-5,4H2v2H3ZM3,10H2v2H3ZM3,3H4V2H2V4H3ZM20,2V3h1V4h1V2ZM16,6h1.29926L12,11.29889V10H11v3h3V12H12.713L18,6.71332V8h1V5H16ZM2,14h8v8H2Zm1,7H9V15H3Z"/><rect class="cls-1" width="24" height="24"/></svg>
